X:490
T:Madame Bonaparte
% Nottingham Music Database
P:8  12 bars
S:Alistair Anderson
M:4/4
L:1/8
R:Hornpipe
K:G
dc|B2BA BdBG|c2cB cecA|GBdf gfge|d3e dcBA|
B2BA BdBG|cBcd efge|dBGB cAFA|G2GF G2:|
BA|GBdf gfge|d3e dcBA|FGBd gfge|d3e dcBA|
BdGd BdGd|ceAe ceAd|BdGd BdGA|FADA FADd|
BdGd BdGd|cBcd efge|dBGB cAFA|G2GF G2:|
